X:0612
T:Duke of York's Troop
M:3/8
L:1/16
Q:3/8=80
N:needs work to sort the anacruses out
I: :: :: ||
Z:Jack Campin * www.campin.me.uk * 2009
K:G
def|     g2d2`d2|  d3``edc| B2G2`G2|  G3``BAG|F2`A2``A2 |G2`B2``d2 |{e}d2`c2``B2 |{B}A4
def|     g2d2`d2|  d3``edc| B2G2`G2|  G4   d2|e2(ge)(ge)|d2(Bd)(Bd)|   c2`A2``F2 |   G6  ||
 G4|     F2A2`A2|  G2B2`B2| A2c2`c2|  B3``dBG|F2(AF)(AF)|G2(BG)(BG)|   A2(cA)(cA)|   B4
def|"_f" g2d2`d2|  d3``edc| B2G2`G2|  G4   d2|ed`ef``ge |fg`af``gd |   c2`A2``F2 |   G6  ||
        (B2d2)d2|(^d2e2)e2|(A2c2)c2|(^c2d2)d2|G2`F2``A2 |G4     Bd |   gd`gd``BG |   d6   |
    "_p"(B2d2)d2| ^d2e2`e2| A2c2`c2| ^c2d2`d2|gf`g=f`e^d|e=dcB``AG |   ce`dB``cA |   G4z2|]
<end>
<start>
